X: 1
T: The Mother And Child
R: reel
M: 4/4
L: 1/8
K: Dmaj
A2GE FD~D2|EFGD EFGE|A2GE FDDF|EFGE A2AB:|
|:cAAB cdeg|fdec dcAB|cAAB cdeg|1 fdec d2ed:|2 fdec d2ec||


Tune 1565	Setting 30000

